!!key: tele-40-7-Fan-Spi-3-Flute
!!!COM: Telemann, Georg Philipp
!!!CDT: 1681/03/14-1767/06/25
!!!CBL: Magdeburg
!!!CDL: Hamburg
!!!CNT: German
!!!TWV: 40:7
!!!TWV-genre: 40
!!!TWV-work: 7
!!!OPR: 12 Fantasias for transverse flute without bass
!!!OTL: Fantasia 6
!!!OMD: Spirituoso
!!!OMV: 3
!!!ODT: ca. 1732–1733
!!!AST: Late Baroque
!!!AGN: Fantasia
!!!AMT: Simple triple
!!!AIN: Transverse flute
**kern
*ICww
*Iflt
*clefG2
*k[b-]
*d:
*M3/2
=
4a
4dd
4cc#X
4ff
4ee
4dd
=
2gg
4ff
4ee
4aa
4gg
=
4bb-
4aa
4gg
4ff
4ee
4dd
=
4a
4dd
4cc#X
4ff
4ee
4dd
=
2gg
4ff
4ee
4aa
4gg
!!LO:LB:g=original
=
4bb-
4aa
4a
4cc#X
2d
=
4ff
4ccn
4dd
4a
4b-
4g
=
2cc
4a
4f
4ff
4dd
=
4bn
4g
4dd
4gg
4ee
4cc
=
4ff
4aa
4gg
4bb-
4aa
8ggL
8ffJ
!!LO:LB:g=original
=
2ddd
4bb-
8aa
8gg
4ccc
4ee
=
4ff
4gg
4cc
4ee
2ff
=
4a
4dd
4cc#X
4ff
4ee
4dd
=
2gg
4ff
4ee
4aa
4gg
=
4bb-
4aa
4gg
4ff
4ee
4dd
!!LO:LB:g=original
=
4a
4dd
4cc#X
4ff
4ee
4dd
=
2gg
4ff
4ee
4aa
4gg
=
4bb-
4aa
4a
4cc#X
2d
=
4ff
4ee
4dd
4ccn
4bn
4a
=
2ee
4e
4dd
4cc
4bn
=
4aa
8gg
8ff
4ee
4cc
4dd
4bn
!!LO:LB:g=original
=
4cc
4a
4aa
4ee
4ff
4dd
=
2bbn
4gg#X
8ff#X
8ee
4ggg
4bb
=
4cc
4aa
4ee
4gg#X
2aa
=
4a
4dd
4cc#X
4ff
4ee
4dd
=
2gg
4ff
4ee
4aa
4gg
!!LO:LB:g=original
=
4bb-
4aa
4gg
4ff
4ee
4dd
=
4a
4dd
4cc#X
4ff
4ee
4dd
=
2gg
4ff
4ee
4aa
4gg
=
4bb-
4aa
4a
4cc#X
2d
=
4ddd
4aa
4bb-
4ff#X
4gg
4dd
!!LO:LB:g=original
=
2ee-X
4cc
8b-
8a
4dd
4f#X
=
4g
4cc
4a
4dd
4b-
4g
=
4gg
4bb-
4dd
4ff
4ee
8dd
8cc
=
2ff
4gg
8ff
8ee
4aa
4a
=
4dd
8ee
8ff
4ee
4dd
2cc#X
=
4a
4dd
4cc#X
4ff
4ee
4dd
=
2gg
4ff
4ee
4aa
4gg
=
4bb-
4aa
4gg
4ff
4ee
4dd
=
4a
4dd
4cc#X
4ff
4ee
4dd
=
2gg
4ff
4ee
4aa
4gg
=
4bb-
4aa
4a
4cc#X
2dd
==
*-
!!!RTL1: G. PH. Telemann: Twelve Fantasias for Flute without Bass TWV 40:2-13
!!!RPN1: D'Arcangelo, Rita
!!!RMM1: Da Vinci Classics
!!!RC#1: DV-C00440
!!!RRD1: 2022
!!!RLC1: Andreaskirche, Berlin, Germany
!!!RDT1: 16 September 2020, 17 September 2020
!!!RT#1: 6
!!!RTL2: The Telemann Files: 12 Fantasies for Solo Flute
!!!RPN2: Choi, Jasmine
!!!RMM2: Austrian Gramophone
!!!RC#2: AG0001
!!!RRD2: February 2015
!!!RLC2: LeFrak Hall, Queens, USA
!!!RDT2: 9 June 2014, 10 June 2014
!!!RT#2: 6
!!!RTL3: Georg Philipp Telemann: Twelve Fantasies for Flute
!!!RPN3: Robertello, Thomas
!!!RMM3: Delos
!!!RC#3: DE3396
!!!RRD3: 1 June 2009
!!!RLC3: Clear Creek Recording, Keene, California
!!!RDT3: Unknown
!!!RT#3: 6
